X:1
T:Quia viderunt I
T:Ivo de Vento
T:Source : Liber mottetorum 4 vocum---Monacii---A.Berg---1571. Editor : André Vierendeels (08/11/16).
T:Quia viderunt I
T:©
T:©
T:©
T:©
T:©
C:Ivo de Vento
Z:©
%%score [ 1 2 3 4 ]
L:1/8
Q:1/4=100
M:2/2
K:C
V:1 treble nm="Soprano" snm="S"
V:2 treble nm="Alto" snm="A"
V:3 treble-8 nm="Tenor" snm="T"
V:4 bass nm="Bass" snm="B"
V:1
 G4 A2 A2 | c4 B2 c2- | cc A2 B4 | c4 G4 | G2 G2 A4 | G4 G3 G | A2 B3 A/G/ B2 | c8 | z2 F4 F2 | %9
w: Qui- a vi-|de- runt o-|* cu- li me-|i, qui-|a vi- de-|runt o- cu-|li me- * * *|i|sa- lu-|
 E4 F4 | D4 E2 E2- | EF G3 F/E/ F2 | !fermata!G8 || G4 B2 c2 | A2 B2 c3 c | cBAG FD G2 | A2 c4 BA | %17
w: ta- re|tu- um, tu-||um.|Lu- men ad|re- ve- la- ti-|o- * * * * * *|nem gen- * *|
 G3 F/E/ F3 F | E2 G2 B2 c2 | A2 B2 c2 G2 | A3 B cG c2- | c2 B2 A3 A | B4 z2 G2 | c3 B A2 A2 | %24
w: * * * * ti-|um, lu- men ad|re- ve- la- ti-|o- * * * *|* nem gen- ti-|um, et|glo- * * ri-|
 G4 z4 | z2 c4 c2 | B4 c4 | A3 A G2 G2 | A2 A4 G2 | G6 E2 | !fermata!D8 || G6 E2 | E4 F2 F2- | %33
w: am|ple- bis|tu- ae|Is- ra- el, ple-|bis tu- ae|Is- ra-|el.|Sic- ut|e- rat in|
 F2 ED E2 E2 | FGAB c3 c | B4 A4 | G2 G2 G4 | G2 G4 A2 | B2 G2 c4 | z8 | z8 | z2 c4 c2 | B4 c2 A2 | %43
w: _ _ _ _ prin-|ci- * * * * pi-|o et|nunc et sem-|per, et in|se- cu- la|||se- cu-|lo- rum, a-|
 G4 z4 | z2 c4 c2 | B2 B2 c3 B | AG G3 F/E/ F2 | !fermata!G8 |] %48
w: men,|se- cu-|lo- rum, a- *||men.|
V:2
 z8 | z2 C2 E2 E2 | F4 D2 E2- | EE F2 E3 D | CB, E2 C4 | E3 E D4 | E3 F G4 | E2 A4 A2 | %8
w: |Qui- a vi-|de- runt o-|* cu- li me- *|* * * i,|o- cu- li|me- * *|i, sa- lu-|
 G2 A2 F2 D2 | z2 C4 C2 | B,4 C4 | C4 D4 | !fermata!B,8 || z8 | z4 z2 C2 | E2 F2 D2 E2 | %16
w: ta- re tu- um,|sa- lu-|ta- re|tu- *|um.||Lu-|men ad re- ve-|
 F3 F E2 D2- | D2 E4 D2 | E4 z4 | F4 E2 E2 | C2 D2 E2 E2 | FE G4 F2 | G2 D2 E4 | z2 C2 F3 F | %24
w: la ti- o- nem|_ gen- ti-|um,|lu- men ad|re- ve- la- ti-|o- * * nem|gen- ti- um,|et glo- ri-|
 E2 E2 G2 A2 | D2 G4 F2 | G2 D2 E2 A,B, | CA, D2 E2 C2- | CA,CD EF E2- | ED/C/B,C D2 C2 | %30
w: am ple- bis tu-|ae Is- ra-|el, ple- bis tu- *|* * * ae Is-||* * * * * * ra-|
 !fermata!B,8 || z4 C4- | C2 C2 C4 | C4 G,4 | A,2 F4 E2 | G2 G2 F2 F2 | E4 D4 | E4 C4 | %38
w: el.|Sic-|* ut e-|rat in|prin- ci- pi-|o, et nunc et|sem- *|per, et|
 D2 E3 DCB, | A,2 A,2 G,4 | z2 F4 F2 | E2 E2 F3 E | DC D2 C3 D | E2 E4 E2 | D2 E2 C2 A,2 | %45
w: in se- * * *|* cu- la|se- cu-|lo- rum, a- *|* * * men, _|_ _ se-|cu- lo- rum, a-|
 D3 D G2 F2 | FEDC D4 | !fermata!B,8 |] %48
w: men, se- cu- lo-|rum, _ _ _ a-|men.|
V:3
 z8 | z8 | z4 G4 | A2 A2 c4 | G2 c4 BA | c3 c G4 | c4 d4 | c4 z2 c2- | c2 c2 B4 | c4 A4 | G4 G3 G | %11
w: ||Qui-|a vi- de-|runt o- * *|* cu- li|me- *|i, sa-|* lu- ta-|re tu-|um, sa- lu-|
 G2 G2 A4 | !fermata!G8 || z8 | z8 | z8 | z4 G4 | B2 c2 A2 B2 | c3 c G2 A2 | d3 d c4 | z8 | z8 | %22
w: ta- re tu-|um.||||Lu-|men ad re- ve-|la- ti- o- nem|gen- ti- um,|||
 G4 c3 c | A4 z4 | c6 c2 | B2 c2 A3 A | G4 z2 F2- | F2 F2 E4 | F4 C3 D | EFGA B2 c2 | %30
w: et glo- ri-|am|ple- bis|tu- ae Is- ra-|el, ple-|* bis tu-|ae Is- *|* * * * * ra-|
 !fermata!G8 || z4 G4- | G2 G2 A4 | G4 c4- | c2 c2 c3 c | d2 d2 d4 | B2 c3 B/A/ B2 | c4 z4 | %38
w: el.|Sic-|* ut e-|rat in|_ prin- ci- pi-|o, et nunc|et sem- * * *|per,|
 z2 c4 A2 | c2 d2 edcB | AB c3 BBA/B/ | c2 G2 z4 | G3 G A2 F2 | c3 B/A/ GE A2- | AG G3 F/E/ F2 | %45
w: se- cu-|lo- rum, a- * * *||* men,|se- cu- lo- rum,|a- * * * * *||
 G2 G4 A2 | c2 B2 A4 | !fermata!G8 |] %48
w: men, se- cu-|lo- rum, a-|men.|
V:4
 z8 | z8 | z8 | z4 z2 C,2 | E,2 E,2 F,4 | C,2 C3 C B,2 |"^#""^#" A,4 G,4 | z2 F,4 F,2 | %8
w: |||Qui-|a vi- de-|runt o- cu- li|me- i,|sam- lu-|
 E,2 F,2 D,4 | C,4 F,,4 | z2 G,,2 C,2 C,2- | C,2 E,2 D,4 | !fermata!G,,8 || z8 | z8 | z8 | z8 | %17
w: ta- re tu-|* um,|sa- lu- ta-|* re tu-|um.|||||
 z8 | z8 | z8 | z8 | z8 | z8 | z8 | z8 | z8 | z8 | z8 | z8 | z8 | z8 || z4 C,4- | C,2 C,2 F,,4 | %33
w: ||||||||||||||Sic-|* ut e-|
 C,2 C,4 C,2 | F,3 G, A,2 A,2 | G,4 D,4 | E,2 C,2 G,4 | C,4 z4 | z4 z2 F,2- | F,2 F,2 E,4 | %40
w: rat in prin-|ci- * * pi-|o, et|nunc et sem-|per,|se-|* cu- lo-|
 F,4 D,4 | C,4 z4 |"^#""^#" z8 | z2 C,4 C,2 | B,,2 C,2 A,,4 | G,,2 G,2 E,2 F,2- | F,2 G,2 D,4 | %47
w: rum, a-|men,||se- cu-|lo- rum, a-|men, se- cu- lo-|* rum, a-|
 !fermata!G,,8 |] %48
w: men.|

